X:1
T:Man of Constant Sorrow
M:4/4
L:1/8
K:C
 E D3/2 C/2| D4- DE DC| E G3- GG cB| A4- AG FE| D4 z E E3/2 D/2| D4- DE D3/2 C/2|\
 E G3- Gc cB| A4- AG FE| D4- D|
